src/assets/icons/github.svg

<svg width="100%" height="100%" viewBox="0 0 22 22" fill="none" xmlns="http://www.w3.org/2000/svg">
<path d="M10.9986 0.228973C4.92525 0.228973 0 5.17347 0 11.273C0 16.1515 3.1515 20.2902 7.524 21.7518C8.074 21.8536 8.27475 21.5126 8.27475 21.2197C8.27475 20.9571 8.26512 20.2627 8.25962 19.3415C5.20025 20.0083 4.554 17.8606 4.554 17.8606C4.05488 16.5846 3.333 16.245 3.333 16.245C2.33338 15.5602 3.40725 15.574 3.40725 15.574C4.51137 15.6523 5.09163 16.7125 5.09163 16.7125C6.07338 18.3996 7.667 17.9128 8.294 17.6296C8.393 16.916 8.67762 16.4292 8.9925 16.1528C6.5505 15.8737 3.982 14.9263 3.982 10.6955C3.982 9.4896 4.411 8.50372 5.115 7.73097C5.00088 7.45185 4.62413 6.32847 5.22225 4.8091C5.22225 4.8091 6.14625 4.5121 8.24725 5.94072C9.1245 5.69597 10.065 5.5736 11.0014 5.56947C11.935 5.57497 12.8769 5.69597 13.7555 5.9421C15.8551 4.51347 16.7777 4.81047 16.7777 4.81047C17.3772 6.33122 17.0005 7.45322 16.8877 7.73235C17.5931 8.5051 18.018 9.49097 18.018 10.6968C18.018 14.9387 15.4467 15.8723 12.9965 16.146C13.3911 16.487 13.7431 17.1607 13.7431 18.1906C13.7431 19.6673 13.7294 20.8581 13.7294 21.2197C13.7294 21.5153 13.9274 21.8591 14.4856 21.7505C18.8512 20.2875 22 16.1501 22 11.273C22 5.17347 17.0748 0.228973 10.9986 0.228973Z" fill="#444444"/>
</svg>

<svg xmlns="http://www.w3.org/2000/svg" width="100%" height="100%" viewBox="0 0 22 22" fill="none"><path d="M10.999.229C4.925.229 0 5.173 0 11.273c0 4.878 3.152 9.017 7.524 10.479.55.102.751-.239.751-.532l-.015-1.878c-3.059.667-3.706-1.481-3.706-1.481-.499-1.276-1.221-1.616-1.221-1.616-1-.685.074-.671.074-.671 1.104.078 1.684 1.138 1.684 1.138.982 1.687 2.575 1.2 3.202.917.099-.714.384-1.2.698-1.477-2.442-.279-5.01-1.226-5.01-5.457a4.28 4.28 0 0 1 1.133-2.965c-.114-.279-.491-1.402.107-2.922 0 0 .924-.297 3.025 1.132.877-.245 1.818-.367 2.754-.371a10.52 10.52 0 0 1 2.754.373c2.1-1.429 3.022-1.132 3.022-1.132.599 1.521.223 2.643.11 2.922a4.27 4.27 0 0 1 1.13 2.964c0 4.242-2.571 5.176-5.022 5.449.395.341.747 1.015.747 2.045l-.014 3.029c0 .296.198.639.756.531C18.851 20.288 22 16.15 22 11.273 22 5.173 17.075.229 10.999.229z" fill="#444"/></svg>
